src/assets/svg/ic_transfer_all_channels.svg

<svg data-name="Layer 1" xmlns="http://www.w3.org/2000/svg" width="16" height="16">
    <path d="M15.88 7.5l-2.73 2.75-.65-.65L14.08 8H8V7h6.08L12.5 5.4l.65-.65zM6 15h4v-4H6zm-5 0h4v-4H1zm0-5h4V6H1zm0-5h4V1H1zm9-4H6v4h4z" fill="#3d464d"/>
</svg>

<svg id="Layer_1" data-name="Layer 1" xmlns="http://www.w3.org/2000/svg" width="16" height="16" viewBox="0 0 16 16">
  <defs>
    <style>
      .cls-1 {
        fill: #3d464d;
      }
    </style>
  </defs>
  <title>Transfer_all_channels</title>
  <path class="cls-1" d="M15.88,7.5l-2.73,2.75L12.5,9.6,14.08,8H8V7h6.08L12.5,5.4l.65-.65ZM6,15h4V11H6ZM1,15H5V11H1Zm0-5H5V6H1ZM1,5H5V1H1Zm9-4H6V5h4Z"/>
</svg>
